static/assets/logo.svg

<svg fill="none" height="133" viewBox="0 0 507 133" width="507" xmlns="http://www.w3.org/2000/svg"><g fill="#121212"><path d="m180.224 96c-6.981 0-13.112-1.232-18.392-3.696-5.28-2.5227-9.387-6.1013-12.32-10.736-2.875-4.6347-4.312-10.0907-4.312-16.368s1.437-11.8507 4.312-16.72c2.933-4.8693 6.893-8.624 11.88-11.264 5.045-2.6987 10.677-4.048 16.896-4.048 6.16 0 11.733 1.3493 16.72 4.048 5.045 2.64 9.005 6.3947 11.88 11.264s4.312 10.4427 4.312 16.72c0 3.52-.851 7.0107-2.552 10.472-1.643 3.4027-3.696 6.1307-6.16 8.184h10.296v12.144zm-1.936-13.288c3.109 0 5.955-.704 8.536-2.112s4.635-3.432 6.16-6.072 2.288-5.72 2.288-9.24-.763-6.5707-2.288-9.152c-1.467-2.64-3.491-4.664-6.072-6.072-2.581-1.4667-5.456-2.2-8.624-2.2-3.227 0-6.131.7333-8.712 2.2-2.581 1.408-4.635 3.432-6.16 6.072-1.467 2.5813-2.2 5.632-2.2 9.152s.733 6.6 2.2 9.24c1.525 2.64 3.579 4.664 6.16 6.072 2.64 1.408 5.544 2.112 8.712 2.112zm56.297 14.608c-5.808 0-10.179-1.6133-13.112-4.84-2.875-3.2267-4.312-7.48-4.312-12.76v-25.96h15.488v24.2c0 4.8693 2.2 7.304 6.6 7.304 1.994 0 3.813-.4693 5.456-1.408 1.642-.9387 2.992-2.3173 4.048-4.136v-25.96h15.488v42.24h-14.96v-4.576c-1.819 1.936-4.019 3.4027-6.6 4.4-2.582.9973-5.28 1.496-8.096 1.496zm62.402 0c-8.272 0-14.784-1.936-19.536-5.808-4.693-3.872-7.04-9.3573-7.04-16.456 0-6.9813 2.083-12.496 6.248-16.544 4.224-4.048 10.296-6.072 18.216-6.072 5.045 0 9.357.968 12.936 2.904 3.637 1.8773 6.365 4.488 8.184 7.832 1.877 3.2853 2.816 7.0107 2.816 11.176v5.72h-33.704c.587 2.3467 2.053 4.048 4.4 5.104s5.544 1.584 9.592 1.584c2.757 0 5.573-.2347 8.448-.704 2.933-.4693 5.456-1.1147 7.568-1.936v10.208c-2.171.88-4.899 1.584-8.184 2.112-3.227.5867-6.541.88-9.944.88zm7.216-26.928c-.235-2.288-1.173-4.0773-2.816-5.368s-3.901-1.936-6.776-1.936c-2.816 0-5.045.6747-6.688 2.024-1.643 1.2907-2.581 3.0507-2.816 5.28zm20.734-16.632h14.96v5.28c1.642-1.8773 3.96-3.3147 6.952-4.312 2.992-1.056 6.306-1.584 9.944-1.584v11.88c-3.872 0-7.304.5573-10.296 1.672-2.934 1.1147-4.958 2.7867-6.072 5.016v24.288h-15.488zm48 59.664c-1.877 0-3.843-.147-5.896-.44-2.053-.235-3.579-.587-4.576-1.056v-11.528c1.701.704 3.637 1.056 5.808 1.056 1.936 0 3.432-.44 4.488-1.32 1.115-.8213 1.995-2.1413 2.64-3.96l1.056-2.816-18.304-39.6h15.488l11 27.456 10.384-27.456h15.488l-17.424 44.176c-2.053 5.28-4.693 9.181-7.92 11.704-3.168 2.523-7.245 3.784-12.232 3.784zm45.76-17.424c-1.525 0-2.845-.528-3.96-1.584-1.056-1.056-1.584-2.3467-1.584-3.872 0-1.584.528-2.9333 1.584-4.048 1.115-1.1147 2.435-1.672 3.96-1.672 1.584 0 2.904.5573 3.96 1.672 1.115 1.1147 1.672 2.464 1.672 4.048 0 1.5253-.557 2.816-1.672 3.872-1.056 1.056-2.376 1.584-3.96 1.584zm11.771-42.24h14.96v5.28c1.642-1.8773 3.96-3.3147 6.952-4.312 2.992-1.056 6.306-1.584 9.944-1.584v11.88c-3.872 0-7.304.5573-10.296 1.672-2.934 1.1147-4.958 2.7867-6.072 5.016v24.288h-15.488zm53.192 43.56c-3.402 0-6.952-.352-10.648-1.056-3.696-.6453-6.629-1.584-8.8-2.816v-11.352c2.406 1.408 5.28 2.5813 8.624 3.52 3.403.88 6.512 1.32 9.328 1.32 2.054 0 3.55-.1467 4.488-.44.939-.2933 1.408-.88 1.408-1.76 0-.704-.322-1.2613-.968-1.672-.586-.4693-1.701-.9387-3.344-1.408-1.584-.528-3.432-1.0853-5.544-1.672-3.578-1.056-6.394-2.1413-8.448-3.256-2.053-1.1147-3.578-2.5227-4.576-4.224-.997-1.7013-1.496-3.8427-1.496-6.424 0-4.576 1.79-7.9787 5.368-10.208 3.638-2.288 8.595-3.432 14.872-3.432 3.051 0 6.248.3227 9.592.968 3.403.6453 5.955 1.496 7.656 2.552v11.176c-1.76-1.1733-4.106-2.1413-7.04-2.904-2.874-.7627-5.573-1.144-8.096-1.144-1.994 0-3.549.2053-4.664.616-1.114.352-1.672.9973-1.672 1.936 0 .88.558 1.5547 1.672 2.024 1.115.4693 3.11 1.056 5.984 1.76 1.878.4693 2.67.6747 2.376.616 3.755.9973 6.659 2.112 8.712 3.344 2.054 1.232 3.491 2.6987 4.312 4.4.88 1.6427 1.32 3.7547 1.32 6.336 0 4.048-1.76 7.2747-5.28 9.68-3.461 2.3467-8.506 3.52-15.136 3.52z"/><circle cx="75" cy="52" r="14"/><circle cx="34" cy="88" r="6"/><path clip-rule="evenodd" d="m50 122c27.6142 0 50-22.3858 50-50-54.4837 8.8694-48.9179-13.5674-44.5431-31.2033 2.5307-10.2015 4.6629-18.7967-5.4569-18.7967-27.6142 0-50 22.3858-50 50s22.3858 50 50 50zm-16-18c8.8365 0 16-7.1635 16-16s-7.1635-16-16-16-16 7.1635-16 16 7.1635 16 16 16z" fill-rule="evenodd"/></g></svg>

<svg width="507" height="133" viewBox="0 0 507 133" fill="none" xmlns="http://www.w3.org/2000/svg">
<path d="M180.224 96C173.243 96 167.112 94.768 161.832 92.304C156.552 89.7813 152.445 86.2027 149.512 81.568C146.637 76.9333 145.2 71.4773 145.2 65.2C145.2 58.9227 146.637 53.3493 149.512 48.48C152.445 43.6107 156.405 39.856 161.392 37.216C166.437 34.5173 172.069 33.168 178.288 33.168C184.448 33.168 190.021 34.5173 195.008 37.216C200.053 39.856 204.013 43.6107 206.888 48.48C209.763 53.3493 211.2 58.9227 211.2 65.2C211.2 68.72 210.349 72.2107 208.648 75.672C207.005 79.0747 204.952 81.8027 202.488 83.856H212.784V96H180.224ZM178.288 82.712C181.397 82.712 184.243 82.008 186.824 80.6C189.405 79.192 191.459 77.168 192.984 74.528C194.509 71.888 195.272 68.808 195.272 65.288C195.272 61.768 194.509 58.7173 192.984 56.136C191.517 53.496 189.493 51.472 186.912 50.064C184.331 48.5973 181.456 47.864 178.288 47.864C175.061 47.864 172.157 48.5973 169.576 50.064C166.995 51.472 164.941 53.496 163.416 56.136C161.949 58.7173 161.216 61.768 161.216 65.288C161.216 68.808 161.949 71.888 163.416 74.528C164.941 77.168 166.995 79.192 169.576 80.6C172.216 82.008 175.12 82.712 178.288 82.712ZM234.585 97.32C228.777 97.32 224.406 95.7067 221.473 92.48C218.598 89.2533 217.161 85 217.161 79.72V53.76H232.649V77.96C232.649 82.8293 234.849 85.264 239.249 85.264C241.243 85.264 243.062 84.7947 244.705 83.856C246.347 82.9173 247.697 81.5387 248.753 79.72V53.76H264.241V96H249.281V91.424C247.462 93.36 245.262 94.8267 242.681 95.824C240.099 96.8213 237.401 97.32 234.585 97.32ZM296.987 97.32C288.715 97.32 282.203 95.384 277.451 91.512C272.758 87.64 270.411 82.1547 270.411 75.056C270.411 68.0747 272.494 62.56 276.659 58.512C280.883 54.464 286.955 52.44 294.875 52.44C299.92 52.44 304.232 53.408 307.811 55.344C311.448 57.2213 314.176 59.832 315.995 63.176C317.872 66.4613 318.811 70.1867 318.811 74.352V80.072H285.107C285.694 82.4187 287.16 84.12 289.507 85.176C291.854 86.232 295.051 86.76 299.099 86.76C301.856 86.76 304.672 86.5253 307.547 86.056C310.48 85.5867 313.003 84.9413 315.115 84.12V94.328C312.944 95.208 310.216 95.912 306.931 96.44C303.704 97.0267 300.39 97.32 296.987 97.32ZM304.203 70.392C303.968 68.104 303.03 66.3147 301.387 65.024C299.744 63.7333 297.486 63.088 294.611 63.088C291.795 63.088 289.566 63.7627 287.923 65.112C286.28 66.4027 285.342 68.1627 285.107 70.392H304.203ZM324.937 53.76H339.897V59.04C341.539 57.1627 343.857 55.7253 346.849 54.728C349.841 53.672 353.155 53.144 356.793 53.144V65.024C352.921 65.024 349.489 65.5813 346.497 66.696C343.563 67.8107 341.539 69.4827 340.425 71.712V96H324.937V53.76ZM372.937 113.424C371.06 113.424 369.094 113.277 367.041 112.984C364.988 112.749 363.462 112.397 362.465 111.928V100.4C364.166 101.104 366.102 101.456 368.273 101.456C370.209 101.456 371.705 101.016 372.761 100.136C373.876 99.3147 374.756 97.9947 375.401 96.176L376.457 93.36L358.153 53.76H373.641L384.641 81.216L395.025 53.76H410.513L393.089 97.936C391.036 103.216 388.396 107.117 385.169 109.64C382.001 112.163 377.924 113.424 372.937 113.424ZM418.697 96C417.172 96 415.852 95.472 414.737 94.416C413.681 93.36 413.153 92.0693 413.153 90.544C413.153 88.96 413.681 87.6107 414.737 86.496C415.852 85.3813 417.172 84.824 418.697 84.824C420.281 84.824 421.601 85.3813 422.657 86.496C423.772 87.6107 424.329 88.96 424.329 90.544C424.329 92.0693 423.772 93.36 422.657 94.416C421.601 95.472 420.281 96 418.697 96ZM430.468 53.76H445.428V59.04C447.07 57.1627 449.388 55.7253 452.38 54.728C455.372 53.672 458.686 53.144 462.324 53.144V65.024C458.452 65.024 455.02 65.5813 452.028 66.696C449.094 67.8107 447.07 69.4827 445.956 71.712V96H430.468V53.76ZM483.66 97.32C480.258 97.32 476.708 96.968 473.012 96.264C469.316 95.6187 466.383 94.68 464.212 93.448V82.096C466.618 83.504 469.492 84.6773 472.836 85.616C476.239 86.496 479.348 86.936 482.164 86.936C484.218 86.936 485.714 86.7893 486.652 86.496C487.591 86.2027 488.06 85.616 488.06 84.736C488.06 84.032 487.738 83.4747 487.092 83.064C486.506 82.5947 485.391 82.1253 483.748 81.656C482.164 81.128 480.316 80.5707 478.204 79.984C474.626 78.928 471.81 77.8427 469.756 76.728C467.703 75.6133 466.178 74.2053 465.18 72.504C464.183 70.8027 463.684 68.6613 463.684 66.08C463.684 61.504 465.474 58.1013 469.052 55.872C472.69 53.584 477.647 52.44 483.924 52.44C486.975 52.44 490.172 52.7627 493.516 53.408C496.919 54.0533 499.471 54.904 501.172 55.96V67.136C499.412 65.9627 497.066 64.9947 494.132 64.232C491.258 63.4693 488.559 63.088 486.036 63.088C484.042 63.088 482.487 63.2933 481.372 63.704C480.258 64.056 479.7 64.7013 479.7 65.64C479.7 66.52 480.258 67.1947 481.372 67.664C482.487 68.1333 484.482 68.72 487.356 69.424C489.234 69.8933 490.026 70.0987 489.732 70.04C493.487 71.0373 496.391 72.152 498.444 73.384C500.498 74.616 501.935 76.0827 502.756 77.784C503.636 79.4267 504.076 81.5387 504.076 84.12C504.076 88.168 502.316 91.3947 498.796 93.8C495.335 96.1467 490.29 97.32 483.66 97.32Z" fill="#121212"/>
<circle cx="75" cy="52" r="14" fill="#121212"/>
<circle cx="34" cy="88" r="6" fill="#121212"/>
<path fill-rule="evenodd" clip-rule="evenodd" d="M50 122C77.6142 122 100 99.6142 100 72C45.5163 80.8694 51.0821 58.4326 55.4569 40.7967C57.9876 30.5952 60.1198 22 50 22C22.3858 22 0 44.3858 0 72C0 99.6142 22.3858 122 50 122ZM34 104C42.8365 104 50 96.8365 50 88C50 79.1635 42.8365 72 34 72C25.1635 72 18 79.1635 18 88C18 96.8365 25.1635 104 34 104Z" fill="#121212"/>
</svg>
